;FLAVOR:RepRap
;TIME:567
;Filament used: 0.64699m
;Layer height: 0.8
;MINX:-38.887
;MINY:-16.288
;MINZ:0.3
;MAXX:38.787
;MAXY:16.053
;MAXZ:2.7
;Generated with Cura_SteamEngine 5.3.1
T0
M104 S200
M109 S200
M82 ;absolute extrusion mode
G28 ;Home
G92 E0
G92 E0
G1 F1500 E-6.5
;LAYER_COUNT:4
;LAYER:0
M107
;MESH:fer.png
G0 F3600 X20.593 Y-9.593 Z0.3
;TYPE:WALL-OUTER
G1 F1500 E0
G1 F900 X-21.07 Y-9.593 E1.56741
G1 X-21.07 Y-16.288 E1.81928
G1 X20.593 Y-16.287 E3.38669
G1 X20.593 Y-9.593 E3.63853
G0 F3600 X20.593 Y-9.993
G0 X19.833 Y-10.353
;TYPE:SKIN
G1 F900 X-20.31 Y-10.353 E5.14875
G1 X-20.31 Y-15.527 E5.3434
G1 X19.833 Y-15.527 E6.85363
G1 X19.833 Y-10.353 E7.04828
G0 F3600 X19.323 Y-10.862
G0 X19.294 Y-14.51
G0 X19.432 Y-14.509
G1 F900 X18.814 Y-15.126 E7.08113
G0 F3600 X18.814 Y-14.988
G0 X17.683 Y-15.126
G1 F900 X19.432 Y-13.377 E7.17419
G0 F3600 X19.294 Y-13.378
G0 X19.432 Y-12.246
G1 F900 X16.551 Y-15.126 E7.32744
G0 F3600 X16.551 Y-14.988
G0 X15.42 Y-15.126
G1 F900 X19.432 Y-11.115 E7.54087
G0 F3600 X18.661 Y-10.753
G1 F900 X14.289 Y-15.126 E7.77351
G0 F3600 X14.289 Y-14.988
G0 X13.157 Y-15.126
G1 F900 X17.53 Y-10.753 E8.00617
G0 F3600 X17.531 Y-10.892
G0 X16.399 Y-10.753
G1 F900 X12.026 Y-15.126 E8.23883
G0 F3600 X12.026 Y-14.988
G0 X10.895 Y-15.126
G1 F900 X15.267 Y-10.753 E8.47147
G0 F3600 X15.268 Y-10.892
G0 X14.136 Y-10.753
G1 F900 X9.763 Y-15.126 E8.70413
G0 F3600 X9.763 Y-14.988
G0 X8.632 Y-15.126
G1 F900 X13.005 Y-10.753 E8.93679
G0 F3600 X13.006 Y-10.892
G0 X11.873 Y-10.753
G1 F900 X7.5 Y-15.126 E9.16945
G0 F3600 X7.5 Y-14.988
G0 X6.369 Y-15.126
G1 F900 X10.742 Y-10.753 E9.40212
G0 F3600 X10.743 Y-10.892
G0 X9.61 Y-10.753
G1 F900 X5.238 Y-15.126 E9.63475
G0 F3600 X5.238 Y-14.988
G0 X4.106 Y-15.126
G1 F900 X8.479 Y-10.753 E9.86741
G0 F3600 X8.48 Y-10.892
G0 X7.348 Y-10.753
G1 F900 X2.975 Y-15.126 E10.10008
G0 F3600 X2.975 Y-14.988
G0 X1.844 Y-15.126
G1 F900 X6.216 Y-10.753 E10.33271
G0 F3600 X6.217 Y-10.892
G0 X5.085 Y-10.753
G1 F900 X0.712 Y-15.126 E10.56537
G0 F3600 X0.712 Y-14.988
G0 X-.418 Y-15.126
G1 F900 X3.954 Y-10.753 E10.79801
G0 F3600 X3.955 Y-10.892
G0 X2.822 Y-10.753
G1 F900 X-1.549 Y-15.126 E11.03062
G0 F3600 X-1.549 Y-14.988
G0 X-2.681 Y-15.126
G1 F900 X1.691 Y-10.753 E11.26325
G0 F3600 X1.692 Y-10.892
G0 X0.56 Y-10.753
G1 F900 X-3.812 Y-15.126 E11.49589
G0 F3600 X-3.812 Y-14.988
G0 X-4.944 Y-15.126
G1 F900 X-.571 Y-10.753 E11.72855
G0 F3600 X-.57 Y-10.892
G0 X-1.702 Y-10.753
G1 F900 X-6.075 Y-15.126 E11.96122
G0 F3600 X-6.075 Y-14.988
G0 X-7.206 Y-15.126
G1 F900 X-2.834 Y-10.753 E12.19385
G0 F3600 X-2.833 Y-10.892
G0 X-3.965 Y-10.753
G1 F900 X-8.338 Y-15.126 E12.42651
G0 F3600 X-8.338 Y-14.988
G0 X-9.469 Y-15.126
G1 F900 X-5.096 Y-10.753 E12.65918
G0 F3600 X-5.095 Y-10.892
G0 X-6.228 Y-10.753
G1 F900 X-10.6 Y-15.126 E12.89181
G0 F3600 X-10.6 Y-14.988
G0 X-11.732 Y-15.126
G1 F900 X-7.359 Y-10.753 E13.12447
G0 F3600 X-7.358 Y-10.892
G0 X-8.49 Y-10.753
G1 F900 X-12.863 Y-15.126 E13.35714
G0 F3600 X-12.863 Y-14.988
G0 X-13.995 Y-15.126
G1 F900 X-9.622 Y-10.753 E13.5898
G0 F3600 X-9.621 Y-10.892
G0 X-10.753 Y-10.753
G1 F900 X-15.126 Y-15.126 E13.82246
G0 F3600 X-15.126 Y-14.988
G0 X-16.257 Y-15.126
G1 F900 X-11.885 Y-10.753 E14.0551
G0 F3600 X-11.884 Y-10.892
G0 X-13.016 Y-10.753
G1 F900 X-17.389 Y-15.126 E14.28776
G0 F3600 X-17.389 Y-14.988
G0 X-18.52 Y-15.126
G1 F900 X-14.147 Y-10.753 E14.52042
G0 F3600 X-14.146 Y-10.892
G0 X-15.279 Y-10.753
G1 F900 X-19.651 Y-15.126 E14.75306
G0 F3600 X-19.909 Y-14.252
G1 F900 X-16.41 Y-10.753 E14.93922
G0 F3600 X-16.409 Y-10.892
G0 X-17.541 Y-10.753
G1 F900 X-19.909 Y-13.121 E15.06521
G0 F3600 X-19.77 Y-13.121
G0 X-19.909 Y-11.989
G1 F900 X-18.673 Y-10.753 E15.13097
G1 X-18.532 Y-10.612
G0 F3600 X-18.531 Y-11.592
G1 F1500 E8.63097
G0 F3600 X13.088 Y-10.012
G0 X13.086 Y-4.414
G0 X13.556 Y3.112
;TYPE:WALL-OUTER
G1 F1500 E15.13097
G1 F900 X-27.847 Y3.115 E16.68859
G1 X-27.847 Y-3.308 E16.93023
G1 X-27.705 Y-3.348 E16.93578
G1 X13.556 Y-3.348 E18.48807
G1 X13.556 Y3.112 E18.7311
G0 F3600 X13.556 Y2.712
G0 X12.796 Y2.352
;TYPE:SKIN
G1 F900 X-27.087 Y2.355 E20.23154
G1 X-27.087 Y-2.588 E20.41751
G1 X12.796 Y-2.588 E21.91795
G1 X12.796 Y2.352 E22.1038
G0 F3600 X12.286 Y1.842
G0 X11.387 Y-2.049
G0 X11.388 Y-2.187
G1 F900 X12.395 Y-1.18 E22.15737
G0 F3600 X12.257 Y-1.181
G0 X12.395 Y-0.049
G1 F900 X10.257 Y-2.187 E22.27112
G0 F3600 X10.256 Y-2.049
G0 X9.125 Y-2.187
G1 F900 X12.395 Y1.081 E22.44505
G0 F3600 X12.133 Y1.951
G1 F900 X7.994 Y-2.187 E22.66524
G0 F3600 X7.993 Y-2.049
G0 X6.863 Y-2.187
G1 F900 X11.002 Y1.951 E22.88542
G0 F3600 X11.002 Y1.812
G0 X9.871 Y1.951
G1 F900 X5.731 Y-2.187 E23.10563
G0 F3600 X5.73 Y-2.049
G0 X4.6 Y-2.187
G1 F900 X8.739 Y1.951 E23.32582
G0 F3600 X8.739 Y1.812
G0 X7.608 Y1.951
G1 F900 X3.469 Y-2.187 E23.54601
G0 F3600 X3.468 Y-2.049
G0 X2.337 Y-2.187
G1 F900 X6.477 Y1.951 E23.76622
G0 F3600 X6.477 Y1.812
G0 X5.345 Y1.951
G1 F900 X1.206 Y-2.187 E23.9864
G0 F3600 X1.205 Y-2.049
G0 X0.074 Y-2.187
G1 F900 X4.214 Y1.951 E24.20662
G0 F3600 X4.214 Y1.812
G0 X3.082 Y1.951
G1 F900 X-1.056 Y-2.187 E24.42678
G0 F3600 X-1.057 Y-2.049
G0 X-2.187 Y-2.187
G1 F900 X1.952 Y1.952 E24.64699
G0 F3600 X1.952 Y1.813
G0 X0.82 Y1.952
G1 F900 X-3.319 Y-2.187 E24.8672
G0 F3600 X-3.32 Y-2.049
G0 X-4.45 Y-2.187
G1 F900 X-.31 Y1.952 E25.08744
G0 F3600 X-.31 Y1.813
G0 X-1.441 Y1.952
G1 F900 X-5.581 Y-2.187 E25.30768
G0 F3600 X-5.582 Y-2.049
G0 X-6.713 Y-2.187
G1 F900 X-2.573 Y1.952 E25.52792
G0 F3600 X-2.573 Y1.813
G0 X-3.704 Y1.952
G1 F900 X-7.844 Y-2.187 E25.74816
G0 F3600 X-7.845 Y-2.049
G0 X-8.976 Y-2.187
G1 F900 X-4.835 Y1.952 E25.96842
G0 F3600 X-4.835 Y1.813
G0 X-5.967 Y1.952
G1 F900 X-10.107 Y-2.187 E26.18866
G0 F3600 X-10.108 Y-2.049
G0 X-11.238 Y-2.187
G1 F900 X-7.098 Y1.952 E26.4089
G0 F3600 X-7.098 Y1.813
G0 X-8.229 Y1.953
G1 F900 X-12.37 Y-2.187 E26.62919
G0 F3600 X-12.371 Y-2.049
G0 X-13.501 Y-2.187
G1 F900 X-9.36 Y1.953 E26.84949
G0 F3600 X-9.36 Y1.814
G0 X-10.492 Y1.953
G1 F900 X-14.632 Y-2.187 E27.06975
G0 F3600 X-14.633 Y-2.049
G0 X-15.764 Y-2.187
G1 F900 X-11.623 Y1.953 E27.29004
G0 F3600 X-11.623 Y1.814
G0 X-12.754 Y1.953
G1 F900 X-16.895 Y-2.187 E27.51034
G0 F3600 X-16.896 Y-2.049
G0 X-18.026 Y-2.187
G1 F900 X-13.886 Y1.953 E27.7306
G0 F3600 X-13.886 Y1.814
G0 X-15.017 Y1.953
G1 F900 X-19.158 Y-2.187 E27.95089
G0 F3600 X-19.159 Y-2.049
G0 X-20.289 Y-2.187
G1 F900 X-16.148 Y1.953 E28.17119
G0 F3600 X-16.148 Y1.814
G0 X-17.279 Y1.953
G1 F900 X-21.421 Y-2.187 E28.39151
G0 F3600 X-21.422 Y-2.049
G0 X-22.552 Y-2.187
G1 F900 X-18.41 Y1.953 E28.61183
G0 F3600 X-18.41 Y1.815
G0 X-19.542 Y1.953
G1 F900 X-23.683 Y-2.187 E28.83212
G0 F3600 X-23.684 Y-2.049
G0 X-24.815 Y-2.187
G1 F900 X-20.673 Y1.953 E29.05244
G0 F3600 X-20.673 Y1.815
G0 X-21.805 Y1.953
G1 F900 X-25.946 Y-2.187 E29.27273
G0 F3600 X-26.686 Y-1.796
G1 F900 X-22.936 Y1.953 E29.47222
G0 F3600 X-22.936 Y1.815
G0 X-24.067 Y1.953
G1 F900 X-26.686 Y-.664 E29.61151
G0 F3600 X-26.548 Y-.664
G0 X-26.686 Y0.466
G1 F900 X-25.199 Y1.953 E29.69062
G0 F3600 X-25.199 Y1.815
G0 X-26.33 Y1.953
G1 F900 X-26.686 Y1.598 E29.70954
G0 F3600 X-25.847 Y1.115
G1 F1500 E23.20954
G0 F3600 X-27.434 Y2.702
G0 X-27.436 Y8.523
G0 X-31.999 Y10.888
G0 X-31.998 Y9.553
;TYPE:WALL-OUTER
G1 F1500 E29.70954
G1 F900 X-31.832 Y9.589 E29.71593
G1 X-11.099 Y9.59 E30.49592
G1 X-11.102 Y16.052 E30.73903
G1 X-38.887 Y16.053 E31.78434
G1 X-38.885 Y-16.248 E32.99953
G1 X-38.743 Y-16.288 E33.00508
G1 X-32.237 Y-16.288 E33.24985
G1 X-32.227 Y9.258 E34.21092
G1 X-32.168 Y9.407 E34.21695
G1 X-31.998 Y9.553 E34.22538
G0 F3600 X-32.168 Y9.407
G0 X-32.227 Y9.258
G0 X-32.227 Y9.242
G0 X-33.533 Y9.242
G0 X-32.311 Y10.888
G0 X-32.31 Y10.246
;TYPE:SKIN
G1 F900 X-31.874 Y10.35 E34.24224
G1 X-11.86 Y10.35 E34.99519
G1 X-11.862 Y15.292 E35.18111
G1 X-38.127 Y15.293 E36.16923
G1 X-38.125 Y-15.528 E37.32875
G1 X-32.997 Y-15.528 E37.52167
G1 X-32.987 Y9.357 E38.45787
G1 X-32.874 Y9.69 E38.4711
G1 X-32.677 Y9.983 E38.48439
G1 X-32.31 Y10.246 E38.50137
G0 F3600 X-32.311 Y10.888
G0 X-37.151 Y14.753
G0 X-37.151 Y14.891
G1 F900 X-37.726 Y14.316 E38.53196
G0 F3600 X-37.587 Y14.317
G0 X-37.726 Y13.185
G1 F900 X-36.02 Y14.891 E38.62273
G0 F3600 X-36.02 Y14.753
G0 X-34.888 Y14.891
G1 F900 X-37.726 Y12.054 E38.7737
G0 F3600 X-37.587 Y12.055
G0 X-37.726 Y10.922
G1 F900 X-33.757 Y14.891 E38.98487
G0 F3600 X-33.757 Y14.753
G0 X-32.625 Y14.891
G1 F900 X-37.726 Y9.791 E39.25623
G0 F3600 X-37.587 Y9.792
G0 X-37.726 Y8.659
G1 F900 X-31.494 Y14.891 E39.5878
G0 F3600 X-31.494 Y14.753
G0 X-30.363 Y14.891
G1 F900 X-37.726 Y7.528 E39.97955
G0 F3600 X-37.587 Y7.529
G0 X-37.726 Y6.397
G1 F900 X-29.231 Y14.891 E40.43149
G0 F3600 X-29.231 Y14.753
G0 X-28.1 Y14.891
G1 F900 X-32.35 Y10.641 E40.65761
G0 F3600 X-32.351 Y10.888
G0 X-31.11 Y10.75
G1 F900 X-26.969 Y14.891 E40.87793
G0 F3600 X-26.969 Y14.753
G0 X-25.837 Y14.891
G1 F900 X-29.979 Y10.75 E41.09827
G0 F3600 X-29.98 Y10.888
G0 X-28.847 Y10.75
G1 F900 X-24.707 Y14.89 E41.31854
G0 F3600 X-24.707 Y14.753
G0 X-23.575 Y14.89
G1 F900 X-27.716 Y10.75 E41.53883
G0 F3600 X-27.717 Y10.888
G0 X-26.585 Y10.75
G1 F900 X-22.444 Y14.89 E41.75912
G0 F3600 X-22.444 Y14.753
G0 X-21.312 Y14.89
G1 F900 X-25.453 Y10.75 E41.97942
G0 F3600 X-25.454 Y10.888
G0 X-24.322 Y10.75
G1 F900 X-20.181 Y14.89 E42.19971
G0 F3600 X-20.181 Y14.753
G0 X-19.05 Y14.89
G1 F900 X-23.19 Y10.75 E42.41997
G0 F3600 X-23.191 Y10.888
G0 X-22.059 Y10.75
G1 F900 X-17.918 Y14.89 E42.64027
G0 F3600 X-17.918 Y14.753
G0 X-16.787 Y14.89
G1 F900 X-20.928 Y10.75 E42.86056
G0 F3600 X-20.929 Y10.888
G0 X-19.796 Y10.75
G1 F900 X-15.656 Y14.89 E43.08082
G0 F3600 X-15.656 Y14.753
G0 X-14.524 Y14.89
G1 F900 X-18.665 Y10.75 E43.30112
G0 F3600 X-18.666 Y10.888
G0 X-17.534 Y10.75
G1 F900 X-13.393 Y14.89 E43.52141
G0 F3600 X-13.393 Y14.753
G0 X-12.261 Y14.89
G1 F900 X-16.402 Y10.75 E43.7417
G0 F3600 X-16.403 Y10.888
G0 X-15.271 Y10.75
G1 F900 X-12.26 Y13.761 E43.9019
G0 F3600 X-12.4 Y13.76
G0 X-12.259 Y12.63
G1 F900 X-14.14 Y10.75 E44.00195
G0 F3600 X-14.141 Y10.888
G0 X-13.008 Y10.75
G1 F900 X-12.259 Y11.499 E44.0418
G0 F3600 X-12.399 Y11.498
G0 X-33.46 Y10.816
G0 X-33.275 Y9.716
G1 F900 X-37.726 Y5.265 E44.27861
G0 F3600 X-37.587 Y5.266
G0 X-37.725 Y4.135
G1 F900 X-33.39 Y8.469 E44.50923
G0 F3600 X-33.533 Y8.469
G0 X-33.39 Y7.338
G1 F900 X-37.725 Y3.003 E44.73987
G0 F3600 X-37.587 Y3.004
G0 X-37.725 Y1.872
G1 F900 X-33.391 Y6.206 E44.97045
G0 F3600 X-33.533 Y6.206
G0 X-33.391 Y5.074
G1 F900 X-37.725 Y0.741 E45.20102
G0 F3600 X-37.587 Y0.742
G0 X-37.725 Y-.39
G1 F900 X-33.391 Y3.943 E45.43158
G0 F3600 X-33.534 Y3.943
G0 X-33.392 Y2.811
G1 F900 X-37.725 Y-1.521 E45.66208
G0 F3600 X-37.587 Y-1.52
G0 X-37.725 Y-2.653
G1 F900 X-33.392 Y1.68 E45.89262
G0 F3600 X-33.534 Y1.68
G0 X-33.392 Y0.548
G1 F900 X-37.725 Y-3.784 E46.12313
G0 F3600 X-37.587 Y-3.783
G0 X-37.725 Y-4.915
G1 F900 X-33.393 Y-.583 E46.35361
G0 F3600 X-33.535 Y-.583
G0 X-33.393 Y-1.714
G1 F900 X-37.724 Y-6.046 E46.58406
G0 F3600 X-37.587 Y-6.045
G0 X-37.724 Y-7.177
G1 F900 X-33.393 Y-2.846 E46.81449
G0 F3600 X-33.535 Y-2.846
G0 X-33.393 Y-3.978
G1 F900 X-37.724 Y-8.309 E47.04492
G0 F3600 X-37.587 Y-8.308
G0 X-37.724 Y-9.44
G1 F900 X-33.393 Y-5.109 E47.27534
G0 F3600 X-33.536 Y-5.109
G0 X-33.394 Y-6.241
G1 F900 X-37.724 Y-10.571 E47.50572
G0 F3600 X-37.587 Y-10.57
G0 X-37.724 Y-11.703
G1 F900 X-33.394 Y-7.373 E47.73609
G0 F3600 X-33.536 Y-7.373
G0 X-33.394 Y-8.504
G1 F900 X-37.724 Y-12.834 E47.96647
G0 F3600 X-37.587 Y-12.833
G0 X-37.724 Y-13.966
G1 F900 X-33.395 Y-9.636 E48.19682
G0 F3600 X-33.536 Y-9.636
G0 X-33.395 Y-10.767
G1 F900 X-37.724 Y-15.097 E48.42716
G0 F3600 X-37.616 Y-15.019
G0 X-36.623 Y-15.127
G1 F900 X-33.395 Y-11.899 E48.59891
G0 F3600 X-33.537 Y-11.899
G0 X-33.395 Y-13.031
G1 F900 X-35.492 Y-15.127 E48.71045
G0 F3600 X-35.493 Y-14.989
G0 X-34.361 Y-15.127
G1 F900 X-33.395 Y-14.162 E48.76182
G0 F3600 X-34.237 Y-14.162
G1 F1500 E42.26182
G0 F3600 X-32.646 Y10.002
G0 X-31.179 Y8.535
G0 X-10.045 Y8.536
G0 X-4.761 Y10.004
G0 X35.553 Y10.568
G0 X36.649 Y11.318
;TYPE:WALL-OUTER
G1 F1500 E48.76182
G1 F900 X36.326 Y11.656 E48.77941
G1 X36.286 Y11.834 E48.78627
G1 X35.987 Y12.212 E48.8044
G1 X35.856 Y12.532 E48.81741
G1 X34.469 Y13.923 E48.89131
G1 X34.161 Y14.074 E48.90422
G1 X34.068 Y14.173 E48.90933
G1 X33.993 Y14.398 E48.91825
G1 X33.462 Y14.462 E48.93837
G1 X33.018 Y14.911 E48.96213
G1 X32.611 Y15.115 E48.97925
G1 X32.228 Y15.136 E48.99369
G1 X32.053 Y15.21 E49.00083
G1 X31.657 Y15.559 E49.02069
G1 X31.225 Y15.606 E49.03704
G1 X30.952 Y15.819 E49.05007
G1 X29.559 Y15.823 E49.10247
G1 X29.274 Y16.053 E49.11625
G1 X-3.693 Y16.053 E50.35651
G1 X-3.697 Y9.588 E50.59973
G1 X28.778 Y9.588 E51.82147
G1 X28.901 Y9.542 E51.82641
G1 X29.153 Y9.353 E51.83826
G1 X29.39 Y9.331 E51.84722
G1 X29.567 Y9.24 E51.85471
G1 X29.877 Y8.919 E51.87149
G1 X30.268 Y8.866 E51.88634
G1 X30.465 Y8.777 E51.89447
G1 X30.783 Y8.416 E51.91257
G1 X30.819 Y8.181 E51.92151
G1 X31.179 Y7.825 E51.94056
G1 X31.254 Y7.705 E51.94589
G1 X31.291 Y7.468 E51.95491
G1 X31.45 Y7.296 E51.96372
G1 X31.523 Y7.123 E51.97079
G1 X31.527 Y5.579 E52.02887
G1 X31.475 Y5.435 E52.03463
G1 X31.286 Y5.279 E52.04385
G1 X31.22 Y5.002 E52.05457
G1 X31.05 Y4.843 E52.06332
G1 X30.988 Y4.697 E52.06929
G1 X30.825 Y4.588 E52.07667
G1 X30.807 Y4.342 E52.08595
G1 X30.658 Y4.133 E52.0956
G1 X30.55 Y4.095 E52.09991
G1 X30.512 Y3.987 E52.10422
G1 X30.401 Y3.884 E52.10991
G1 X30.238 Y3.826 E52.11642
G1 X29.893 Y3.817 E52.12941
G1 X29.545 Y3.424 E52.14915
G1 X29.36 Y3.366 E52.15645
G1 X29.136 Y3.352 E52.16489
G1 X29.09 Y3.24 E52.16945
G1 X28.846 Y3.119 E52.17969
G1 X20.962 Y3.116 E52.4763
G1 X20.964 Y-3.349 E52.71952
G1 X24.611 Y-3.354 E52.85672
G1 X24.807 Y-3.445 E52.86485
G1 X25.349 Y-4.061 E52.89572
G1 X25.403 Y-4.197 E52.90123
G1 X25.42 Y-4.56 E52.9149
G1 X25.616 Y-4.83 E52.92745
G1 X25.653 Y-5.022 E52.93481
G1 X26.029 Y-5.438 E52.9559
G1 X26.113 Y-5.637 E52.96403
G1 X26.134 Y-6.18 E52.98447
G1 X26.522 Y-6.568 E53.00511
G1 X26.589 Y-6.681 E53.01006
G1 X26.617 Y-6.893 E53.0181
G1 X26.962 Y-7.24 E53.03651
G1 X27.034 Y-7.37 E53.0421
G1 X27.078 Y-7.839 E53.05982
G1 X27.287 Y-8.106 E53.07258
G1 X27.321 Y-8.304 E53.08014
G1 X27.682 Y-8.673 E53.09956
G1 X27.748 Y-8.819 E53.10559
G1 X27.782 Y-9.25 E53.12185
G1 X27.991 Y-9.517 E53.13461
G1 X28.026 Y-9.719 E53.14232
G1 X28.427 Y-10.162 E53.1648
G1 X28.471 Y-10.294 E53.17003
G1 X28.478 Y-10.663 E53.18392
G1 X28.695 Y-10.928 E53.1968
G1 X28.73 Y-11.131 E53.20455
G1 X29.121 Y-11.543 E53.22592
G1 X29.175 Y-11.704 E53.23231
G1 X29.182 Y-12.074 E53.24623
G1 X29.4 Y-12.339 E53.25914
G1 X29.435 Y-12.543 E53.26693
G1 X29.787 Y-12.913 E53.28614
G1 X29.884 Y-13.138 E53.29536
G1 X29.921 Y-13.717 E53.31719
G1 X30.269 Y-14.074 E53.33594
G1 X30.354 Y-14.235 E53.34279
G1 X30.39 Y-14.422 E53.34996
G1 X30.749 Y-14.794 E53.36941
G1 X30.809 Y-14.964 E53.37619
G1 X30.86 Y-15.384 E53.39211
G1 X31.073 Y-15.684 E53.40595
G1 X31.095 Y-15.835 E53.41169
G1 X31.531 Y-16.287 E53.43532
G1 X38.787 Y-16.285 E53.70829
G1 X38.582 Y-16.08 E53.7192
G1 X38.466 Y-15.825 E53.72974
G1 X38.441 Y-15.455 E53.74369
G1 X38.216 Y-15.147 E53.75804
G1 X38.197 Y-14.989 E53.76403
G1 X37.878 Y-14.671 E53.78097
G1 X37.764 Y-14.44 E53.79067
G1 X37.735 Y-14.043 E53.80564
G1 X37.525 Y-13.77 E53.8186
G1 X37.493 Y-13.569 E53.82626
G1 X37.045 Y-13.093 E53.85085
G1 X37.007 Y-12.872 E53.85928
G1 X36.836 Y-12.632 E53.87037
G1 X36.785 Y-12.17 E53.88786
G1 X36.348 Y-11.684 E53.91245
G1 X36.302 Y-11.46 E53.92105
G1 X36.177 Y-11.321 E53.92808
G1 X36.118 Y-11.147 E53.93499
G1 X36.081 Y-10.758 E53.94969
G1 X35.638 Y-10.265 E53.97463
G1 X35.598 Y-10.048 E53.98293
G1 X35.432 Y-9.824 E53.99342
G1 X35.363 Y-9.325 E54.01237
G1 X35.122 Y-9.026 E54.02682
G1 X35.087 Y-8.879 E54.0325
G1 X34.816 Y-8.607 E54.04695
G1 X34.716 Y-8.413 E54.05516
G1 X34.699 Y-8.155 E54.06489
G1 X34.419 Y-7.615 E54.08777
G1 X34.383 Y-7.467 E54.0935
G1 X34.052 Y-7.112 E54.11176
G1 X33.994 Y-6.743 E54.12581
G1 X33.693 Y-6.156 E54.15063
G1 X33.548 Y-5.843 E54.16361
G1 X33.262 Y-5.529 E54.17959
G1 X33.202 Y-5.344 E54.1869
