;FLAVOR:RepRap
;TIME:678
;Filament used: 0.694315m
;Layer height: 0.8
;MINX:-40.832
;MINY:-47.307
;MINZ:0.3
;MAXX:40.743
;MAXY:47.828
;MAXZ:2.7
;Generated with Cura_SteamEngine 5.3.1
T0
M104 S200
M109 S200
M82 ;absolute extrusion mode
G28 ;Home
G92 E0
G92 E0
G1 F1500 E-6.5
;LAYER_COUNT:4
;LAYER:0
M107
;MESH:trokut.png
G0 F3600 X-40.793 Y-33.646 Z0.3
;TYPE:WALL-OUTER
G1 F1500 E0
G1 F900 X-40.832 Y-33.724 E0.00328
G1 X-40.586 Y-33.817 E0.01317
G1 X-39.602 Y-33.841 E0.05021
G1 X-39.336 Y-34.001 E0.06188
G1 X-39.123 Y-34.059 E0.07019
G1 X-38.13 Y-34.083 E0.10756
G1 X-37.878 Y-34.243 E0.11879
G1 X-37.663 Y-34.302 E0.12717
G1 X-36.685 Y-34.33 E0.16398
G1 X-36.42 Y-34.484 E0.17551
G1 X-36.205 Y-34.545 E0.18392
G1 X-35.241 Y-34.571 E0.2202
G1 X-34.962 Y-34.727 E0.23223
G1 X-34.747 Y-34.788 E0.24063
G1 X-33.812 Y-34.811 E0.27582
G1 X-33.619 Y-34.876 E0.28348
G1 X-33.504 Y-34.97 E0.28907
G1 X-33.289 Y-35.031 E0.29748
G1 X-32.341 Y-35.055 E0.33315
G1 X-32.161 Y-35.119 E0.34034
G1 X-32.046 Y-35.213 E0.34593
G1 X-31.832 Y-35.273 E0.35429
G1 X-30.865 Y-35.299 E0.39068
G1 X-30.701 Y-35.362 E0.39729
G1 X-30.588 Y-35.455 E0.4028
G1 X-30.374 Y-35.516 E0.41117
G1 X-29.44 Y-35.539 E0.44632
G1 X-29.246 Y-35.604 E0.45402
G1 X-29.131 Y-35.698 E0.4596
G1 X-28.916 Y-35.759 E0.46801
G1 X-27.924 Y-35.783 E0.50534
G1 X-27.673 Y-35.941 E0.5165
G1 X-27.458 Y-36.002 E0.52491
G1 X-26.511 Y-36.026 E0.56055
G1 X-26.33 Y-36.09 E0.56777
G1 X-26.215 Y-36.184 E0.57336
G1 X-26 Y-36.245 E0.58177
G1 X-25.064 Y-36.268 E0.61699
G1 X-24.872 Y-36.333 E0.62462
G1 X-24.757 Y-36.427 E0.6302
G1 X-24.542 Y-36.488 E0.63861
G1 X-23.55 Y-36.512 E0.67594
G1 X-23.299 Y-36.67 E0.6871
G1 X-23.084 Y-36.731 E0.69551
G1 X-22.135 Y-36.755 E0.73122
G1 X-21.956 Y-36.819 E0.73837
G1 X-21.841 Y-36.913 E0.74396
G1 X-21.626 Y-36.974 E0.75237
G1 X-20.689 Y-36.997 E0.78763
G1 X-20.496 Y-37.063 E0.79531
G1 X-20.383 Y-37.156 E0.80081
G1 X-20.169 Y-37.217 E0.80918
G1 X-19.221 Y-37.241 E0.84486
G1 X-19.041 Y-37.305 E0.85205
G1 X-18.926 Y-37.399 E0.85763
G1 X-18.711 Y-37.46 E0.86604
G1 X-17.775 Y-37.483 E0.90127
G1 X-17.583 Y-37.548 E0.90889
G1 X-17.468 Y-37.642 E0.91448
G1 X-17.253 Y-37.703 E0.92289
G1 X-16.305 Y-37.727 E0.95856
G1 X-16.125 Y-37.791 E0.96575
G1 X-16.01 Y-37.885 E0.97134
G1 X-15.795 Y-37.946 E0.97975
G1 X-14.838 Y-37.971 E1.01576
G1 X-14.667 Y-38.034 E1.02262
G1 X-14.552 Y-38.128 E1.02821
G1 X-14.338 Y-38.188 E1.03657
G1 X-13.401 Y-38.211 E1.07183
G1 X-13.209 Y-38.276 E1.07945
G1 X-13.094 Y-38.37 E1.08504
G1 X-12.879 Y-38.431 E1.09345
G1 X-11.931 Y-38.455 E1.12913
G1 X-11.751 Y-38.519 E1.13631
G1 X-11.636 Y-38.613 E1.1419
G1 X-11.421 Y-38.674 E1.15031
G1 X-10.485 Y-38.697 E1.18553
G1 X-10.294 Y-38.761 E1.19311
G1 X-10.178 Y-38.853 E1.19868
G1 X-9.961 Y-38.917 E1.20719
G1 X-9.015 Y-38.941 E1.24279
G1 X-8.836 Y-39.005 E1.24995
G1 X-8.721 Y-39.099 E1.25553
G1 X-8.506 Y-39.16 E1.26394
G1 X-7.558 Y-39.184 E1.29962
G1 X-7.378 Y-39.248 E1.3068
G1 X-7.263 Y-39.342 E1.31239
G1 X-7.048 Y-39.403 E1.3208
G1 X-6.083 Y-39.429 E1.35712
G1 X-5.92 Y-39.491 E1.36368
G1 X-5.805 Y-39.585 E1.36927
G1 X-5.59 Y-39.646 E1.37767
G1 X-4.632 Y-39.671 E1.41373
G1 X-4.462 Y-39.734 E1.42055
G1 X-4.347 Y-39.828 E1.42614
G1 X-4.132 Y-39.889 E1.43454
G1 X-3.196 Y-39.912 E1.46977
G1 X-3.004 Y-39.977 E1.47739
G1 X-2.889 Y-40.071 E1.48298
G1 X-2.674 Y-40.132 E1.49139
G1 X-1.738 Y-40.155 E1.52661
G1 X-1.546 Y-40.22 E1.53424
G1 X-1.431 Y-40.314 E1.53983
G1 X-1.216 Y-40.375 E1.54823
G1 X-.268 Y-40.399 E1.58391
G1 X-0.089 Y-40.462 E1.59105
G1 X0.027 Y-40.554 E1.59662
G1 X0.244 Y-40.618 E1.60513
G1 X1.177 Y-40.641 E1.64024
G1 X1.369 Y-40.706 E1.64787
G1 X1.484 Y-40.8 E1.65346
G1 X1.699 Y-40.861 E1.66186
G1 X2.656 Y-40.886 E1.69788
G1 X2.827 Y-40.949 E1.70474
G1 X2.942 Y-41.043 E1.71032
G1 X3.156 Y-41.103 E1.71869
G1 X4.114 Y-41.128 E1.75474
G1 X4.285 Y-41.191 E1.76159
G1 X4.4 Y-41.285 E1.76718
G1 X4.615 Y-41.346 E1.77559
G1 X5.572 Y-41.371 E1.81161
G1 X5.743 Y-41.434 E1.81846
G1 X5.858 Y-41.528 E1.82405
G1 X6.073 Y-41.589 E1.83246
G1 X7.03 Y-41.614 E1.86847
G1 X7.201 Y-41.677 E1.87533
G1 X7.316 Y-41.771 E1.88092
G1 X7.531 Y-41.832 E1.88932
G1 X8.467 Y-41.855 E1.92455
G1 X8.659 Y-41.92 E1.93217
G1 X8.774 Y-42.014 E1.93776
G1 X8.989 Y-42.075 E1.94617
G1 X9.953 Y-42.101 E1.98245
G1 X10.232 Y-42.254 E1.99442
G1 X10.449 Y-42.318 E2.00293
G1 X11.403 Y-42.343 E2.03884
G1 X11.574 Y-42.406 E2.04569
G1 X11.689 Y-42.5 E2.05128
G1 X11.904 Y-42.561 E2.05969
G1 X12.839 Y-42.584 E2.09487
G1 X13.032 Y-42.649 E2.10253
G1 X13.147 Y-42.743 E2.10812
G1 X13.362 Y-42.804 E2.11653
G1 X14.319 Y-42.829 E2.15255
G1 X14.49 Y-42.892 E2.1594
G1 X14.605 Y-42.986 E2.16499
G1 X14.82 Y-43.047 E2.1734
G1 X15.777 Y-43.072 E2.20941
G1 X15.948 Y-43.135 E2.21627
G1 X16.063 Y-43.229 E2.22186
G1 X16.278 Y-43.29 E2.23026
G1 X17.213 Y-43.313 E2.26545
G1 X17.406 Y-43.378 E2.27311
G1 X17.521 Y-43.472 E2.2787
G1 X17.736 Y-43.533 E2.28711
G1 X18.691 Y-43.558 E2.32305
G1 X18.864 Y-43.621 E2.32998
G1 X18.979 Y-43.715 E2.33556
G1 X19.194 Y-43.776 E2.34397
G1 X20.129 Y-43.799 E2.37916
G1 X20.322 Y-43.864 E2.38682
G1 X20.437 Y-43.958 E2.39241
G1 X20.651 Y-44.018 E2.40077
G1 X21.6 Y-44.042 E2.43648
G1 X21.779 Y-44.106 E2.44363
G1 X21.894 Y-44.2 E2.44922
G1 X22.109 Y-44.261 E2.45763
G1 X23.058 Y-44.285 E2.49334
G1 X23.237 Y-44.349 E2.5005
G1 X23.352 Y-44.443 E2.50608
G1 X23.567 Y-44.504 E2.51449
G1 X24.515 Y-44.528 E2.55017
G1 X24.695 Y-44.592 E2.55735
G1 X24.81 Y-44.686 E2.56294
G1 X25.025 Y-44.747 E2.57135
G1 X26.017 Y-44.771 E2.60868
G1 X26.268 Y-44.929 E2.61984
G1 X26.483 Y-44.99 E2.62825
G1 X27.437 Y-45.015 E2.66415
G1 X27.611 Y-45.078 E2.67111
G1 X27.726 Y-45.172 E2.6767
G1 X27.941 Y-45.233 E2.68511
G1 X28.906 Y-45.259 E2.72142
G1 X29.071 Y-45.322 E2.72807
G1 X29.184 Y-45.415 E2.73358
G1 X29.382 Y-45.467 E2.74128
G1 X30.373 Y-45.515 E2.7786
G1 X30.673 Y-45.705 E2.79196
G1 X31.8 Y-45.756 E2.8344
G1 X31.958 Y-45.815 E2.84075
G1 X32.092 Y-45.918 E2.84711
G1 X32.303 Y-45.963 E2.85522
G1 X33.263 Y-45.987 E2.89135
G1 X33.442 Y-46.05 E2.89849
G1 X33.557 Y-46.144 E2.90408
G1 X33.772 Y-46.205 E2.91249
G1 X34.742 Y-46.232 E2.94899
G1 X34.902 Y-46.294 E2.95545
G1 X35.015 Y-46.387 E2.96095
G1 X35.213 Y-46.439 E2.96866
G1 X36.235 Y-46.489 E3.00715
G1 X36.463 Y-46.647 E3.01759
G1 X36.677 Y-46.692 E3.02581
G1 X37.663 Y-46.716 E3.06292
G1 X37.931 Y-46.87 E3.07455
G1 X38.146 Y-46.933 E3.08298
G1 X39.122 Y-46.961 E3.11971
G1 X39.39 Y-47.118 E3.1314
G1 X39.587 Y-47.168 E3.13904
G1 X40.573 Y-47.215 E3.17618
G1 X40.743 Y-47.307 E3.18345
G1 X40.584 Y-47.084 E3.19375
G1 X40.513 Y-46.532 E3.21469
G1 X40.311 Y-46.115 E3.23212
G1 X40.255 Y-45.589 E3.25202
G1 X40.093 Y-45.377 E3.26206
G1 X40.026 Y-44.83 E3.28279
G1 X39.947 Y-44.622 E3.29116
G1 X39.86 Y-44.512 E3.29644
G1 X39.768 Y-43.889 E3.32013
G1 X39.583 Y-43.613 E3.33263
G1 X39.54 Y-43.13 E3.35088
G1 X39.332 Y-42.69 E3.36919
G1 X39.282 Y-42.188 E3.38817
G1 X39.129 Y-41.993 E3.39749
G1 X39.054 Y-41.43 E3.41886
G1 X38.848 Y-41.001 E3.43676
G1 X38.796 Y-40.488 E3.45616
G1 X38.612 Y-40.216 E3.46851
G1 X38.568 Y-39.729 E3.48691
G1 X38.364 Y-39.307 E3.50454
G1 X38.31 Y-38.788 E3.52418
G1 X38.157 Y-38.594 E3.53347
G1 X38.082 Y-38.029 E3.55491
G1 X37.879 Y-37.611 E3.57239
G1 X37.824 Y-37.087 E3.59222
G1 X37.652 Y-36.851 E3.6032
G1 X37.596 Y-36.328 E3.62299
G1 X37.398 Y-35.931 E3.63968
G1 X37.338 Y-35.387 E3.66027
G1 X37.185 Y-35.193 E3.66957
G1 X37.11 Y-34.628 E3.69101
G1 X36.908 Y-34.216 E3.70827
G1 X36.852 Y-33.686 E3.72832
G1 X36.667 Y-33.41 E3.74082
G1 X36.624 Y-32.928 E3.75903
G1 X36.423 Y-32.519 E3.77617
G1 X36.366 Y-31.987 E3.7963
G1 X36.213 Y-31.791 E3.80566
G1 X36.138 Y-31.227 E3.82706
G1 X35.937 Y-30.819 E3.84417
G1 X35.88 Y-30.286 E3.86434
G1 X35.727 Y-30.092 E3.87363
G1 X35.652 Y-29.527 E3.89508
G1 X35.455 Y-29.13 E3.91175
G1 X35.394 Y-28.585 E3.93238
G1 X35.208 Y-28.305 E3.94503
G1 X35.166 Y-27.828 E3.96304
G1 X34.962 Y-27.408 E3.98061
G1 X34.908 Y-26.885 E4.00039
G1 X34.741 Y-26.661 E4.0109
G1 X34.68 Y-26.128 E4.03108
G1 X34.487 Y-25.748 E4.04712
G1 X34.422 Y-25.184 E4.06848
G1 X34.235 Y-24.898 E4.08133
G1 X34.194 Y-24.427 E4.09912
G1 X34.009 Y-24.07 E4.11424
G1 X33.936 Y-23.484 E4.13646
G1 X33.749 Y-23.199 E4.14928
G1 X33.708 Y-22.727 E4.16711
G1 X33.504 Y-22.307 E4.18467
G1 X33.45 Y-21.784 E4.20446
G1 X33.263 Y-21.499 E4.21728
G1 X33.222 Y-21.027 E4.2351
G1 X33.035 Y-20.663 E4.2505
G1 X32.964 Y-20.083 E4.27248
G1 X32.794 Y-19.852 E4.28327
G1 X32.736 Y-19.326 E4.30318
G1 X32.543 Y-18.946 E4.31921
G1 X32.478 Y-18.383 E4.34054
G1 X32.312 Y-18.16 E4.35099
G1 X32.25 Y-17.626 E4.37122
G1 X32.056 Y-17.243 E4.38737
G1 X31.992 Y-16.682 E4.40861
G1 X31.839 Y-16.487 E4.41794
G1 X31.764 Y-15.925 E4.43927
G1 X31.57 Y-15.543 E4.45539
G1 X31.506 Y-14.982 E4.47663
G1 X31.322 Y-14.71 E4.48898
G1 X31.278 Y-14.225 E4.50731
G1 X31.091 Y-13.861 E4.5227
G1 X31.02 Y-13.281 E4.54468
G1 X30.853 Y-13.057 E4.5552
G1 X30.792 Y-12.525 E4.57534
G1 X30.602 Y-12.152 E4.59109
G1 X30.534 Y-11.58 E4.61276
G1 X30.373 Y-11.368 E4.62277
G1 X30.307 Y-10.824 E4.64339
G1 X30.113 Y-10.441 E4.65954
G1 X30.049 Y-9.881 E4.68075
G1 X29.879 Y-9.65 E4.69154
G1 X29.82 Y-9.122 E4.71153
G1 X29.627 Y-8.741 E4.72759
G1 X29.563 Y-8.18 E4.74884
G1 X29.377 Y-7.899 E4.76151
G1 X29.334 Y-7.423 E4.77949
G1 X29.144 Y-7.05 E4.79524
G1 X29.077 Y-6.48 E4.81683
G1 X28.892 Y-6.204 E4.82933
G1 X28.848 Y-5.721 E4.84758
G1 X28.655 Y-5.34 E4.86365
G1 X28.591 Y-4.779 E4.88489
G1 X28.406 Y-4.503 E4.89739
G1 X28.362 Y-4.021 E4.9156
G1 X28.176 Y-3.659 E4.93091
G1 X28.105 Y-3.079 E4.95289
G1 X27.92 Y-2.803 E4.96539
G1 X27.876 Y-2.32 E4.98364
G1 X27.683 Y-1.939 E4.99971
G1 X27.619 Y-1.379 E5.02091
G1 X27.449 Y-1.148 E5.0317
G1 X27.39 Y-.62 E5.05169
G1 X27.192 Y-.222 E5.06841
G1 X27.133 Y0.322 E5.089
G1 X26.966 Y0.546 E5.09951
G1 X26.904 Y1.079 E5.1197
G1 X26.711 Y1.461 E5.1358
G1 X26.647 Y2.022 E5.15704
G1 X26.494 Y2.217 E5.16637
G1 X26.418 Y2.781 E5.18778
G1 X26.228 Y3.153 E5.20349
G1 X26.161 Y3.723 E5.22508
G1 X25.976 Y3.999 E5.23758
G1 X25.932 Y4.481 E5.25579
G1 X25.739 Y4.862 E5.27186
G1 X25.675 Y5.423 E5.2931
G1 X25.505 Y5.654 E5.30389
G1 X25.446 Y6.182 E5.32388
G1 X25.243 Y6.6 E5.34136
G1 X25.189 Y7.123 E5.36114
G1 X25.036 Y7.318 E5.37047
G1 X24.96 Y7.882 E5.39188
G1 X24.767 Y8.263 E5.40795
G1 X24.703 Y8.824 E5.42919
G1 X24.533 Y9.055 E5.43998
G1 X24.474 Y9.583 E5.45997
G1 X24.295 Y9.928 E5.47459
G1 X24.217 Y10.524 E5.4972
G1 X24.032 Y10.8 E5.5097
G1 X23.988 Y11.283 E5.52795
G1 X23.789 Y11.684 E5.54479
G1 X23.731 Y12.225 E5.56526
G1 X23.544 Y12.51 E5.57808
G1 X23.502 Y12.983 E5.59595
G1 X23.304 Y13.38 E5.61264
G1 X23.245 Y13.925 E5.63326
G1 X23.06 Y14.201 E5.64576
G1 X23.016 Y14.684 E5.66401
G1 X22.823 Y15.065 E5.68008
G1 X22.759 Y15.625 E5.70128
G1 X22.593 Y15.848 E5.71174
G1 X22.53 Y16.384 E5.73204
G1 X22.34 Y16.756 E5.74776
G1 X22.273 Y17.326 E5.76935
G1 X22.106 Y17.55 E5.77986
G1 X22.044 Y18.085 E5.80012
G1 X21.858 Y18.447 E5.81543
G1 X21.787 Y19.026 E5.83738
G1 X21.618 Y19.256 E5.84812
G1 X21.558 Y19.785 E5.86815
G1 X21.374 Y20.141 E5.88322
G1 X21.301 Y20.727 E5.90544
G1 X21.134 Y20.951 E5.91595
G1 X21.072 Y21.485 E5.93618
G1 X20.872 Y21.889 E5.95314
G1 X20.815 Y22.427 E5.97349
G1 X20.662 Y22.622 E5.98281
G1 X20.586 Y23.186 E6.00422
G1 X20.407 Y23.531 E6.01885
G1 X20.329 Y24.128 E6.0415
G1 X20.145 Y24.404 E6.05398
G1 X20.101 Y24.886 E6.07218
G1 X19.922 Y25.23 E6.08677
G1 X19.844 Y25.828 E6.10946
G1 X19.691 Y26.023 E6.11879
G1 X19.615 Y26.587 E6.1402
G1 X19.425 Y26.959 E6.15591
G1 X19.358 Y27.528 E6.17747
G1 X19.205 Y27.723 E6.18679
G1 X19.129 Y28.287 E6.2082
G1 X18.95 Y28.631 E6.22279
G1 X18.872 Y29.229 E6.24548
G1 X18.719 Y29.424 E6.2548
G1 X18.643 Y29.987 E6.27617
G1 X18.459 Y30.343 E6.29125
G1 X18.386 Y30.929 E6.31347
G1 X18.233 Y31.124 E6.32279
G1 X18.157 Y31.688 E6.3442
G1 X17.95 Y32.126 E6.36243
G1 X17.9 Y32.629 E6.38144
G1 X17.747 Y32.824 E6.39077
G1 X17.671 Y33.388 E6.41218
G1 X17.481 Y33.76 E6.42789
G1 X17.414 Y34.33 E6.44949
G1 X17.261 Y34.525 E6.45881
G1 X17.185 Y35.089 E6.48022
G1 X16.98 Y35.515 E6.49801
G1 X16.928 Y36.03 E6.51748
G1 X16.767 Y36.241 E6.52746
G1 X16.699 Y36.789 E6.54824
G1 X16.495 Y37.212 E6.56591
G1 X16.442 Y37.731 E6.58553
G1 X16.289 Y37.926 E6.59486
G1 X16.213 Y38.489 E6.61623
G1 X16.008 Y38.918 E6.63412
G1 X15.956 Y39.431 E6.65352
G1 X15.77 Y39.71 E6.66613
G1 X15.727 Y40.19 E6.68426
G1 X15.52 Y40.627 E6.70245
G1 X15.47 Y41.131 E6.72151
G1 X15.284 Y41.411 E6.73415
G1 X15.241 Y41.89 E6.75225
G1 X15.065 Y42.228 E6.76658
G1 X14.984 Y42.832 E6.78951
G1 X14.798 Y43.113 E6.80219
G1 X14.755 Y43.591 E6.82024
G1 X14.557 Y43.991 E6.83703
G1 X14.498 Y44.533 E6.85755
G1 X14.312 Y44.815 E6.87026
G1 X14.27 Y45.29 E6.88819
G1 X14.074 Y45.684 E6.90475
G1 X14.014 Y46.231 E6.92545
G1 X13.849 Y46.446 E6.93565
G1 X13.785 Y46.992 E6.95633
G1 X13.711 Y47.199 E6.9646
G1 X13.624 Y47.303 E6.9697
G1 X13.57 Y47.473 E6.97641
G1 X13.541 Y47.828 E6.98981
G1 X13.408 Y47.687 E6.9971
G1 X13.371 Y47.504 E7.00413
G1 X13.151 Y47.264 E7.01638
G1 X13.088 Y47.091 E7.0233
G1 X12.925 Y46.956 E7.03127
G1 X12.877 Y46.754 E7.03908
G1 X12.665 Y46.532 E7.05063
G1 X12.6 Y46.36 E7.05754
G1 X12.439 Y46.228 E7.06538
G1 X12.412 Y46.076 E7.07118
G1 X12.291 Y45.885 E7.07969
G1 X12.183 Y45.818 E7.08447
G1 X12.074 Y45.579 E7.09435
G1 X11.954 Y45.497 E7.09982
G1 X11.91 Y45.299 E7.10745
G1 X11.816 Y45.165 E7.11361
G1 X11.698 Y45.088 E7.11891
G1 X11.598 Y44.861 E7.12824
G1 X11.467 Y44.768 E7.13429
G1 X11.43 Y44.584 E7.14135
G1 X11.337 Y44.442 E7.14773
G1 X11.21 Y44.358 E7.15346
G1 X11.118 Y44.139 E7.1624
G1 X10.982 Y44.038 E7.16877
G1 X10.94 Y43.846 E7.17617
G1 X10.833 Y43.696 E7.1831
G1 X10.724 Y43.629 E7.18791
G1 X10.618 Y43.395 E7.19757
G1 X10.497 Y43.311 E7.20312
G1 X10.443 Y43.091 E7.21164
G1 X10.354 Y42.973 E7.2172
G1 X10.239 Y42.9 E7.22232
G1 X10.137 Y42.67 E7.23179
G1 X10.01 Y42.582 E7.2376
G1 X9.975 Y42.403 E7.24446
G1 X9.873 Y42.249 E7.25141
G1 X9.753 Y42.171 E7.2568
G1 X9.655 Y41.946 E7.26603
G1 X9.524 Y41.853 E7.27207
G1 X9.476 Y41.643 E7.28018
G1 X9.377 Y41.51 E7.28642
G1 X9.267 Y41.442 E7.29128
G1 X9.172 Y41.221 E7.30033
G1 X9.039 Y41.123 E7.30655
G1 X8.999 Y40.935 E7.31378
G1 X8.895 Y40.785 E7.32064
G1 X8.781 Y40.714 E7.3257
G1 X8.678 Y40.483 E7.33521
G1 X8.552 Y40.396 E7.34097
G1 X8.452 Y40.102 E7.35266
G1 X8.295 Y39.985 E7.36002
G1 X8.195 Y39.757 E7.36939
G1 X8.066 Y39.667 E7.37531
G1 X8.03 Y39.486 E7.38225
G1 X7.926 Y39.331 E7.38927
G1 X7.809 Y39.256 E7.3945
G1 X7.709 Y39.028 E7.40387
G1 X7.58 Y38.938 E7.40978
G1 X7.544 Y38.757 E7.41673
G1 X7.441 Y38.602 E7.42373
G1 X7.323 Y38.527 E7.42899
G1 X7.223 Y38.299 E7.43835
G1 X7.095 Y38.208 E7.44426
G1 X7.058 Y38.028 E7.45118
G1 X6.954 Y37.874 E7.45817
G1 X6.837 Y37.799 E7.46339
G1 X6.737 Y37.571 E7.47276
G1 X6.608 Y37.481 E7.47868
G1 X6.572 Y37.3 E7.48562
G1 X6.468 Y37.145 E7.49264
G1 X6.351 Y37.07 E7.49787
G1 X6.251 Y36.842 E7.50724
G1 X6.122 Y36.752 E7.51316
G1 X6.086 Y36.571 E7.5201
G1 X5.982 Y36.416 E7.52712
G1 X5.865 Y36.341 E7.53235
G1 X5.765 Y36.113 E7.54172
G1 X5.636 Y36.023 E7.54763
G1 X5.6 Y35.842 E7.55458
G1 X5.495 Y35.686 E7.56165
G1 X5.38 Y35.612 E7.5668
G1 X5.278 Y35.384 E7.57619
G1 X5.15 Y35.295 E7.58206
G1 X5.114 Y35.115 E7.58896
G1 X5.01 Y34.959 E7.59602
G1 X4.893 Y34.884 E7.60125
G1 X4.793 Y34.656 E7.61061
G1 X4.664 Y34.566 E7.61653
G1 X4.628 Y34.385 E7.62347
G1 X4.524 Y34.23 E7.63049
G1 X4.407 Y34.155 E7.63572
G1 X4.307 Y33.927 E7.64509
G1 X4.178 Y33.837 E7.65101
G1 X4.142 Y33.656 E7.65795
G1 X4.038 Y33.501 E7.66497
G1 X3.921 Y33.426 E7.6702
G1 X3.821 Y33.198 E7.67957
G1 X3.692 Y33.108 E7.68548
G1 X3.656 Y32.927 E7.69243
G1 X3.551 Y32.771 E7.6995
G1 X3.436 Y32.697 E7.70465
G1 X3.334 Y32.469 E7.71404
G1 X3.206 Y32.38 E7.71991
G1 X3.17 Y32.2 E7.72681
G1 X3.066 Y32.044 E7.73387
G1 X2.949 Y31.969 E7.7391
G1 X2.849 Y31.741 E7.74846
G1 X2.72 Y31.651 E7.75438
G1 X2.684 Y31.47 E7.76132
G1 X2.58 Y31.315 E7.76834
G1 X2.463 Y31.24 E7.77357
G1 X2.363 Y31.012 E7.78294
G1 X2.234 Y30.922 E7.78886
G1 X2.198 Y30.741 E7.7958
G1 X2.094 Y30.586 E7.80282
G1 X1.977 Y30.511 E7.80805
G1 X1.877 Y30.283 E7.81742
